X: 13638
T: Folky Gibbon, The
R: reel
M: 4/4
K: Dmajor
F2 AB A=cBA|G2 BG dAcd|A2 cA eAce|fed=f edBA:|
fd (3ddd edcd|gd (3ddd edcd|e2 (3AAA eAce|=fedg =fdcd:|
B=c (3ccc Bcdc|dA (3AAA ded=c|B=c (3ccc BcdA|fd (3ddd ed^cd:|
ad (3ddd edcd|gd (3ddd edcd|eAce AceA|ce=fe dg=fd|
ad (3ddd edcd|gd (3ddd edcd|eAce AceA|ce=fe dBAG||

